Newaita-dark/emblems/48/emblem-downloads.svg

<svg height="48" viewBox="0 0 48 48" width="48" xmlns="http://www.w3.org/2000/svg"><path d="m880.073484 255.093763c-44.405211 0-80.149831 35.74462-80.149831 79.992366v800.396049h-159.98473c-66.765282 0-103.769624 77.315455-62.041323 129.436465l319.969461 399.961826c31.807988 39.838718 92.432123 39.838718 124.240111 0l320.126926-399.961826c41.570836-52.12101 4.566494-129.436465-62.198788-129.436465h-159.98473v-800.396049c0-44.247746-35.74462-79.992366-79.992366-79.992366zm0 0" fill="none" stroke="#424242" stroke-linejoin="round" stroke-width="309.921265" transform="scale(.0248071)"/><path d="m21.832031 6.328125c-1.101562 0-1.988281.886719-1.988281 1.984375v19.855469h-3.96875c-1.65625 0-2.574219 1.917969-1.539062 3.210937l7.9375 9.921875c.789062.988281 2.292968.988281 3.082031 0l7.941406-9.921875c1.03125-1.292968.113281-3.210937-1.542969-3.210937h-3.96875v-19.855469c0-1.097656-.886718-1.984375-1.984375-1.984375zm0 0" fill="#fafafa"/></svg>

<?xml version="1.0" encoding="UTF-8"?>
<svg xmlns="http://www.w3.org/2000/svg" xmlns:xlink="http://www.w3.org/1999/xlink" width="48px" height="48px" viewBox="0 0 48 48" version="1.1">
<g id="surface1">
<path style="fill:none;stroke-width:309.921265;stroke-linecap:butt;stroke-linejoin:round;stroke:rgb(25.882354%,25.882354%,25.882354%);stroke-opacity:1;stroke-miterlimit:4;" d="M 880.073484 255.093763 C 835.668273 255.093763 799.923653 290.838383 799.923653 335.086129 L 799.923653 1135.482178 L 639.938923 1135.482178 C 573.173641 1135.482178 536.169299 1212.797633 577.8976 1264.918643 L 897.867061 1664.880469 C 929.675049 1704.719187 990.299184 1704.719187 1022.107172 1664.880469 L 1342.234098 1264.918643 C 1383.804934 1212.797633 1346.800592 1135.482178 1280.03531 1135.482178 L 1120.05058 1135.482178 L 1120.05058 335.086129 C 1120.05058 290.838383 1084.30596 255.093763 1040.058214 255.093763 Z M 880.073484 255.093763 " transform="matrix(0.0248071,0,0,0.0248071,0,0)"/>
<path style=" stroke:none;fill-rule:nonzero;fill:rgb(98.039216%,98.039216%,98.039216%);fill-opacity:1;" d="M 21.832031 6.328125 C 20.730469 6.328125 19.84375 7.214844 19.84375 8.3125 L 19.84375 28.167969 L 15.875 28.167969 C 14.21875 28.167969 13.300781 30.085938 14.335938 31.378906 L 22.273438 41.300781 C 23.0625 42.289062 24.566406 42.289062 25.355469 41.300781 L 33.296875 31.378906 C 34.328125 30.085938 33.410156 28.167969 31.753906 28.167969 L 27.785156 28.167969 L 27.785156 8.3125 C 27.785156 7.214844 26.898438 6.328125 25.800781 6.328125 Z M 21.832031 6.328125 "/>
</g>
</svg>
